X:1
T:Nun ist es Zeit
T:Joachim a Burck
T:Source : Breitkopf & Härtel---Leipzig---R.Eitner---1898. First print : 20 Deutsche Liedlein mit 4 Stimmen---Erfurt---G.Baumann---1575. Editor : André Vierendeels ( 02/11/17). Notes : Original clefs : G2, C2, C3, F3 Editorial accidentals above the staff Text by Ludovico Helmbold (Christliche Reimen)
T:Nun ist es Zeit
T:©
T:©
C:Joachim a Burck
Z:©
%%score [ 1 2 3 4 ]
L:1/8
Q:1/4=101
M:4/4
K:F
V:1 treble nm="Soprano 1" snm="S 1"
V:2 treble nm="Soprano 2" snm="S 2"
V:3 treble-8 nm="Tenor" snm="T"
V:4 bass nm="Bass" snm="B"
V:1
 z4 z2 G2 | B2 c2 d4 | e2 f4 e2 | d4 z2 B2 | c4 c2 A2 | A2 B4 A2 | B2 B4 B2 | B4 A2 G2 | %8
w: Nun|ist es Zeit|zu sin- gen|hell, ge-|bo- ren ist|E- ma- nu-|el von Ma-|ri- a der|
w: Der|Freu- de sei|kein Masz noch|Ziel, ge-|bo- ren ist|E- ma- nu-|el. von Ma-|ri- a der|
 A2 G2 ^F4 | z2 A2 A2 A2 | B4 G2 A2- | AG G4 F2 | G2 A2 A2 A2 | B4 G2 A2- | AG G4 F2 | G8 |] %16
w: rei- nen Magd,|wie E- sa-|i- as vor-|* * * ge-|sagt, wie E- sa-|i- as vor-|* * * ge-|sagt.|
w: rei- nen Magd,|Gott ist mit|uns im glei-|* * * chen|Fleisch, doch oh- ne|Sün- de wor-|* * * den|Mensch.|
V:2
"^2)" z4 z2 G2 | G2 G2 A4 | A2 A4 A2 | ^F4 z2 G2 | A4 G2 F2- | F2 F2 F2 F2 | D2 F4 F2 | G4 F2 D2 | %8
w: Nun|ist es Zeit|zu sin- gen|hell ge-|bo- ren ist|_ E- ma- nu-|el von Ma-|ri- a der|
w: Die|Welt ver- geh|nun, wenn die|wöll, ge-|bo- ren ist|_ E- ma- nu-|el von Mar-|ri- a der|
 F2 E2 D4 |"^-natural" z2 F2 F2 F2 | F4 E4 | D6 D2 | D2 F2 F2 F2 | F4 E4 | D4 D4 | D8 |] %16
w: rei- nen Magd,|wie E- sa-|i- as|vor- ge-|sagt, wie E- sa-|i- as|vor- ge-|sagt.|
w: rei- nen Magd,|bei Gott sol-|len wir|e- wig|sein, E- y- a,|ihm der|Preisz al-|lein.|
V:3
"^3)" z4 z2 G2 |"^1)" d2 e2 f4 | e2 d4 ^c2 | d4 z2 d2 | f4 e2 d2- | d2 d2 d2 d2 | B2 d4 d2 | %7
w: Nun|ist es Zeit|zu sin- gen|hell ge-|bo- ren ist|_ E- ma- nu-|el von Ma-|
 d4 d2 B2 | c2 c2 A4 | z2 d2 d2 d2 | d4 c2 c2- | cBAG A2 A2 | G2 d2 d2 d2 | d4 c2 c2- | %14
w: ri- a der|rei- nen Magd,|wie E- sa-|i- as vor-|* * * * * ge-|sagt, wie E- sa-|i- as vor-|
 cBAG A2 A2 | G8 |] %16
w: * * * * * ge-|sagt.|
V:4
"^1)" z4 z2 G,2 |"^1)" G,2 E,2 D,4 | ^C,2 D,4 A,2 | D,4 z2 G,2 | F,4 C,2 D,2- | D,2 B,,2 D,2 D,2 | %6
w: Nun|ist es Zeit|zu sin- gen|hell ge-|bo- ren ist|_ E- ma- nu-|
 B,,2 B,4 B,2 | G,4 D,2 G,2 | F,2 C,2 D,4 | z2 D,2 D,2 D,2 | B,,4 C,4 |"^#" D,4 D,4 | %12
w: el von Ma-|ri- a der|rei- nen Magd,|wie E- sa-|i- as|vor- ge-|
 G,2 D,2 D,2 D,2 | B,,4 C,4 | D,6 D,2 | G,8 |] %16
w: sagt, wie E- sa-|i- as|vor ge-|sagt.|

